portfolio/adventure/img/svg/cog.svg

<svg xmlns="http://www.w3.org/2000/svg" width="88" height="88"><path d="M75.823 52.47a32.97 32.97 0 0 1-3.164 7.544c.198.247 7.275 9.14 2.926 13.487l-2.168 2.168c-3.258 3.257-11.42-1.849-13.368-3.146a33.079 33.079 0 0 1-7.992 3.201l.572.018s-1.547 11.633-7.784 11.633h-2.14c-4.755 0-7.404-9.965-7.862-11.846a33.084 33.084 0 0 1-7.886-3.373l.429.456s-9.215 7.242-13.625 2.834l-1.95-1.622c-3.351-3.351 2.05-12.227 3.131-13.92a32.95 32.95 0 0 1-3.08-7.363C10.03 52.096-.009 49.447-.009 44.677v-2.138c0-5.505 9.573-7.352 11.815-7.709a32.957 32.957 0 0 1 3.061-7.423c-1.028-1.561-6.647-10.476-3.266-13.856l2.06-1.732c3.88-3.878 11.831 1.616 13.687 2.993a32.992 32.992 0 0 1 7.542-3.168C35.479 9.308 38.114-.01 42.705-.01h2.14c5.347 0 7.242 9.012 7.675 11.589a33.015 33.015 0 0 1 7.65 3.155c2.016-1.313 10.316-6.386 13.566-3.138l1.95 2.058c3.801 3.801-1.472 11.497-3.004 13.554a32.94 32.94 0 0 1 3.155 7.56c.681.096 11.573 1.731 11.573 7.771v2.138c0 4.551-9.155 7.176-11.587 7.793zm-32.11-33.353c-13.58 0-24.589 11.004-24.589 24.578s11.009 24.579 24.589 24.579c13.58 0 24.588-11.005 24.588-24.579S57.293 19.117 43.713 19.117zm0 40.964c-9.053 0-16.392-7.337-16.392-16.386s7.339-16.386 16.392-16.386c9.053 0 16.392 7.337 16.392 16.386s-7.339 16.386-16.392 16.386zm0-24.579a8.193 8.193 0 0 0 0 16.385 8.194 8.194 0 0 0 8.196-8.192 8.195 8.195 0 0 0-8.196-8.193z" fill-rule="evenodd"/></svg>

<svg xmlns="http://www.w3.org/2000/svg" xmlns:xlink="http://www.w3.org/1999/xlink" preserveaspectratio="xMidYMid" width="88" height="88" viewbox="0 0 88 88">
  <defs>
  </defs>
  <path d="M75.823,52.470 C75.082,55.137 74.004,57.663 72.659,60.014 C72.857,60.261 79.934,69.154 75.585,73.501 C75.585,73.501 73.417,75.669 73.417,75.669 C70.159,78.926 61.997,73.820 60.049,72.523 C57.564,73.916 54.884,75.002 52.057,75.724 C52.057,75.724 52.629,75.742 52.629,75.742 C52.629,75.742 51.082,87.375 44.845,87.375 C44.845,87.375 42.705,87.375 42.705,87.375 C37.950,87.375 35.301,77.410 34.843,75.529 C32.047,74.743 29.401,73.601 26.957,72.156 C26.957,72.156 27.386,72.612 27.386,72.612 C27.386,72.612 18.171,79.854 13.761,75.446 C13.761,75.446 11.811,73.824 11.811,73.824 C8.460,70.473 13.861,61.597 14.942,59.904 C13.638,57.604 12.590,55.140 11.862,52.541 C10.030,52.096 -0.009,49.447 -0.009,44.677 C-0.009,44.677 -0.009,42.539 -0.009,42.539 C-0.009,37.034 9.564,35.187 11.806,34.830 C12.524,32.209 13.566,29.725 14.867,27.407 C13.839,25.846 8.220,16.931 11.601,13.551 C11.601,13.551 13.661,11.819 13.661,11.819 C17.541,7.941 25.492,13.435 27.348,14.812 C29.698,13.465 32.223,12.388 34.890,11.644 C35.479,9.308 38.114,-0.010 42.705,-0.010 C42.705,-0.010 44.845,-0.010 44.845,-0.010 C50.192,-0.010 52.087,9.002 52.520,11.579 C55.225,12.311 57.787,13.384 60.170,14.734 C62.186,13.421 70.486,8.348 73.736,11.596 C73.736,11.596 75.686,13.654 75.686,13.654 C79.487,17.455 74.214,25.151 72.682,27.208 C74.026,29.563 75.099,32.095 75.837,34.768 C76.518,34.864 87.410,36.499 87.410,42.539 C87.410,42.539 87.410,44.677 87.410,44.677 C87.410,49.228 78.255,51.853 75.823,52.470 ZM43.713,19.117 C30.133,19.117 19.124,30.121 19.124,43.695 C19.124,57.269 30.133,68.274 43.713,68.274 C57.293,68.274 68.301,57.269 68.301,43.695 C68.301,30.121 57.293,19.117 43.713,19.117 ZM43.713,60.081 C34.660,60.081 27.321,52.744 27.321,43.695 C27.321,34.646 34.660,27.309 43.713,27.309 C52.766,27.309 60.105,34.646 60.105,43.695 C60.105,52.744 52.766,60.081 43.713,60.081 ZM43.713,35.502 C39.186,35.502 35.517,39.170 35.517,43.695 C35.517,48.220 39.186,51.887 43.713,51.887 C48.239,51.887 51.909,48.220 51.909,43.695 C51.909,39.170 48.239,35.502 43.713,35.502 Z" id="cog" fill-rule="evenodd"/>
</svg>
